X:2
T:First magnitude star
M:4/4
L:1/8
Q:1/4=138
K:Bm
|: B,2 DF B2 dB | F2 A,D F2 AF | G2 B,D G2 bG | E2 G,B, E2 GE :|
| b f d B F D B, F, | a f d A F D A, F, | g d B G D B, G, D, | e B G E B, G, E, B,, |
